packages/assets/static/images/icons/expand.svg

<svg width="24" height="24" viewBox="0 0 24 24" xmlns="http://www.w3.org/2000/svg">
<path d="M20.25 4.5V9C20.25 9.19891 20.171 9.38968 20.0303 9.53033C19.8897 9.67098 19.6989 9.75 19.5 9.75C19.3011 9.75 19.1103 9.67098 18.9697 9.53033C18.829 9.38968 18.75 9.19891 18.75 9V6.31031L14.7806 10.2806C14.6399 10.4214 14.449 10.5004 14.25 10.5004C14.051 10.5004 13.8601 10.4214 13.7194 10.2806C13.5786 10.1399 13.4996 9.94902 13.4996 9.75C13.4996 9.55098 13.5786 9.36011 13.7194 9.21937L17.6897 5.25H15C14.8011 5.25 14.6103 5.17098 14.4697 5.03033C14.329 4.88968 14.25 4.69891 14.25 4.5C14.25 4.30109 14.329 4.11032 14.4697 3.96967C14.6103 3.82902 14.8011 3.75 15 3.75H19.5C19.6989 3.75 19.8897 3.82902 20.0303 3.96967C20.171 4.11032 20.25 4.30109 20.25 4.5ZM9.21937 13.7194L5.25 17.6897V15C5.25 14.8011 5.17098 14.6103 5.03033 14.4697C4.88968 14.329 4.69891 14.25 4.5 14.25C4.30109 14.25 4.11032 14.329 3.96967 14.4697C3.82902 14.6103 3.75 14.8011 3.75 15V19.5C3.75 19.6989 3.82902 19.8897 3.96967 20.0303C4.11032 20.171 4.30109 20.25 4.5 20.25H9C9.19891 20.25 9.38968 20.171 9.53033 20.0303C9.67098 19.8897 9.75 19.6989 9.75 19.5C9.75 19.3011 9.67098 19.1103 9.53033 18.9697C9.38968 18.829 9.19891 18.75 9 18.75H6.31031L10.2806 14.7806C10.4214 14.6399 10.5004 14.449 10.5004 14.25C10.5004 14.051 10.4214 13.8601 10.2806 13.7194C10.1399 13.5786 9.94902 13.4996 9.75 13.4996C9.55098 13.4996 9.36011 13.5786 9.21937 13.7194ZM19.5 14.25C19.3011 14.25 19.1103 14.329 18.9697 14.4697C18.829 14.6103 18.75 14.8011 18.75 15V17.6897L14.7806 13.7194C14.6399 13.5786 14.449 13.4996 14.25 13.4996C14.051 13.4996 13.8601 13.5786 13.7194 13.7194C13.5786 13.8601 13.4996 14.051 13.4996 14.25C13.4996 14.449 13.5786 14.6399 13.7194 14.7806L17.6897 18.75H15C14.8011 18.75 14.6103 18.829 14.4697 18.9697C14.329 19.1103 14.25 19.3011 14.25 19.5C14.25 19.6989 14.329 19.8897 14.4697 20.0303C14.6103 20.171 14.8011 20.25 15 20.25H19.5C19.6989 20.25 19.8897 20.171 20.0303 20.0303C20.171 19.8897 20.25 19.6989 20.25 19.5V15C20.25 14.8011 20.171 14.6103 20.0303 14.4697C19.8897 14.329 19.6989 14.25 19.5 14.25ZM6.31031 5.25H9C9.19891 5.25 9.38968 5.17098 9.53033 5.03033C9.67098 4.88968 9.75 4.69891 9.75 4.5C9.75 4.30109 9.67098 4.11032 9.53033 3.96967C9.38968 3.82902 9.19891 3.75 9 3.75H4.5C4.30109 3.75 4.11032 3.82902 3.96967 3.96967C3.82902 4.11032 3.75 4.30109 3.75 4.5V9C3.75 9.19891 3.82902 9.38968 3.96967 9.53033C4.11032 9.67098 4.30109 9.75 4.5 9.75C4.69891 9.75 4.88968 9.67098 5.03033 9.53033C5.17098 9.38968 5.25 9.19891 5.25 9V6.31031L9.21937 10.2806C9.36011 10.4214 9.55098 10.5004 9.75 10.5004C9.94902 10.5004 10.1399 10.4214 10.2806 10.2806C10.4214 10.1399 10.5004 9.94902 10.5004 9.75C10.5004 9.55098 10.4214 9.36011 10.2806 9.21937L6.31031 5.25Z"/>
</svg>

<svg viewBox="0 0 24 24" xmlns="http://www.w3.org/2000/svg" aria-hidden="true" fill="currentColor"><path d="M20.25 4.5V9a.75.75 0 1 1-1.5 0V6.31l-3.97 3.97a.75.75 0 1 1-1.06-1.06l3.97-3.97H15a.75.75 0 1 1 0-1.5h4.5a.75.75 0 0 1 .75.75M9.22 13.72l-3.97 3.97V15a.75.75 0 1 0-1.5 0v4.5a.75.75 0 0 0 .75.75H9a.75.75 0 1 0 0-1.5H6.31l3.97-3.97a.75.75 0 1 0-1.06-1.06m10.28.53a.75.75 0 0 0-.75.75v2.69l-3.97-3.97a.75.75 0 1 0-1.06 1.06l3.97 3.97H15a.75.75 0 1 0 0 1.5h4.5a.75.75 0 0 0 .75-.75V15a.75.75 0 0 0-.75-.75m-13.19-9H9a.75.75 0 0 0 0-1.5H4.5a.75.75 0 0 0-.75.75V9a.75.75 0 0 0 1.5 0V6.31l3.97 3.97a.75.75 0 1 0 1.06-1.06z"/></svg>
